X:0710051
T:[ID 7-5]
T:Bezeichnung standardisiert: Menuet [mit Trio]
T:Menuet Con Trio No
C:Urheber unbekannt
C:Datum in der hier transkribierten schriftlichen Quelle: 1776 - 1791
O:Deutschland; Westfalen; Dinker
S:"Tanzsammlung Dahlhoff" Staatsbibliothek zu Berlin, Musiksammlung, Mus. ms. 40182, Buch 07, 005/1, PDF Nr: 732
S:Scan online: http://resolver.staatsbibliothek-berlin.de/SBB0000969000000732
F:http://simonwascher.info/TradArchiv/Dahlhoff/ file-version 2017-11-21
Z:Erfassung in Capella Richmud Rollenbeck, Konversion nach MusicXML Joergen Lang, Konversion nach abc und abc Lektorat Simon Wascher
L:1/8
M:3/4
K:D
d2d2d2 | fdafd2 | D2D2D2 | FDAFD2 | Td4cB | ABcde2 | fdc2B2 | A6 ::
A2A2A2 | cAeca2 | E2E2EF | G6 | AdD2E2 | FGABcd | eGF2E2 | {E}D6 H:|
P:Trio
M:3/4
[K:Dm] DFA2G2 | TF4E2 | F2E2D2 | CDA,4 | DFA2G2 | TF4E2 | FEDEFG | A6 ::
ABc4 | cde4 | efg2f2 | Tf4e2 | dfa2g2 | Tf4e2 | fed2c2 | d6 H:|

